!!!COM: labrinth-feat-emeli-sande
!!!OTL: beneath-your-beautiful
!!!RNB: hooktheoryid: nKexEeWKx_B
**kern	**text
*clefG2	*
*k[f#c#]	*
*M4/4	*
=1	=1
4f#	D
8.r	.
[16gL	.
4.g]J	Em
8r	.
=2	=2
8g	G
16g	.
8g	.
8g	.
16f#	.
16e	A
[4e	.
16e]	.
16d	.
16e	.
=3	=3
4f#	D
8r	.
[8gL	.
4.g]J	Em
8r	.
=4	=4
8g	G
16g	.
8g	.
8g	.
[16f#L	.
16f#]J	A
4e	.
16r	.
16a	.
16g	.
=5	=5
8f#	Bm
8d	.
8d	.
16a	.
16g	.
8f#	D
8d	.
8.d	.
16r	.
=6	=6
16a	G
16a	.
16a	.
8a	.
8b	.
[16aL	.
8.a]J	A
16a]	.
16r	.
16a	.
16g	.
[16f#	.
=7	=7
4f#]	D
8r	.
[8dL	.
4.d]J	Em
8r	.
=8	=8
8g	G
16g	.
8g	.
8g	.
16f#	.
16e	A
4e	.
16r	.
8d	.
=9	=9
1r	.
*-	*-